outputs/icons/navigation/unfold_more_round.svg

<svg xmlns="http://www.w3.org/2000/svg" width="1200" height="1200" fill="none"><g clip-path="url(#a)"><path fill="#000" d="m600 291.499 123 123c19.5 19.5 51 19.5 70.5 0 19.5-19.501 19.5-51.001 0-70.5l-158.5-159c-19.5-19.501-51-19.501-70.5 0l-158.499 159c-19.501 19.499-19.501 50.999 0 70.5 19.499 19.5 50.999 19.5 70.5 0zm0 617.001-122.999-123c-19.501-19.5-51.001-19.5-70.5 0-19.501 19.5-19.501 51 0 70.5L565 1015c19.5 19.5 51 19.5 70.5 0L794 856.5c19.5-19.5 19.5-51 0-70.5s-51-19.5-70.5 0z"/></g><defs><clipPath id="a"><path fill="#fff" d="M0 0h1200v1200H0z"/></clipPath></defs></svg>

<svg width="1200" height="1200" viewBox="0 0 1200 1200" fill="none" xmlns="http://www.w3.org/2000/svg"><g clip-path="url(#clip0_316_1641)"><path d="M600 291.499L723 414.499C742.5 433.999 774 433.999 793.5 414.499C813 394.998 813 363.498 793.5 343.999L635 184.999C615.5 165.498 584 165.498 564.5 184.999L406.001 343.999C386.5 363.498 386.5 394.998 406.001 414.499C425.5 433.999 457 433.999 476.501 414.499L600 291.499ZM600 908.5L477.001 785.5C457.5 766 426 766 406.501 785.5C387 805 387 836.5 406.501 856L565 1015C584.5 1034.5 616 1034.5 635.5 1015L794 856.5C813.5 837 813.5 805.5 794 786C774.5 766.5 743 766.5 723.5 786L600 908.5Z" fill="black"/></g><defs><clipPath id="clip0_316_1641"><path width="24" fill="white" d="M0 0H1200V1200H0V0z"/></clipPath></defs></svg>
